symbols/web/brush/materialsymbolsoutlined/brush_wght200_40px.svg

<svg xmlns="http://www.w3.org/2000/svg" height="40" width="40"><path d="M10.333 32.75q-.833 0-1.666-.208-.834-.209-1.542-.709.958-.666 1.375-1.625.417-.958.417-2.291 0-1.334.895-2.229.896-.896 2.23-.896 1.333 0 2.25.896.916.895.916 2.229 0 2.041-1.437 3.437-1.438 1.396-3.438 1.396Zm0-1.417q1.375 0 2.417-1 1.042-1 1.042-2.416 0-.75-.5-1.229-.5-.48-1.25-.48t-1.23.48q-.479.479-.479 1.229 0 1.166-.271 1.958-.27.792-.812 1.333.167.042.521.084.354.041.562.041Zm8.125-7.083-2.625-2.667L29.708 7.708q.459-.5 1.167-.52.708-.021 1.25.52l.208.209q.5.541.5 1.229 0 .687-.5 1.229Zm-6.416 3.667Z"/></svg>

<svg xmlns="http://www.w3.org/2000/svg" height="40" width="40"><path d="M10.333 32.75Q9.5 32.75 8.667 32.542Q7.833 32.333 7.125 31.833Q8.083 31.167 8.5 30.208Q8.917 29.25 8.917 27.917Q8.917 26.583 9.812 25.688Q10.708 24.792 12.042 24.792Q13.375 24.792 14.292 25.688Q15.208 26.583 15.208 27.917Q15.208 29.958 13.771 31.354Q12.333 32.75 10.333 32.75ZM10.333 31.333Q11.708 31.333 12.75 30.333Q13.792 29.333 13.792 27.917Q13.792 27.167 13.292 26.688Q12.792 26.208 12.042 26.208Q11.292 26.208 10.812 26.688Q10.333 27.167 10.333 27.917Q10.333 29.083 10.062 29.875Q9.792 30.667 9.25 31.208Q9.417 31.25 9.771 31.292Q10.125 31.333 10.333 31.333ZM18.458 24.25 15.833 21.583 29.708 7.708Q30.167 7.208 30.875 7.188Q31.583 7.167 32.125 7.708L32.333 7.917Q32.833 8.458 32.833 9.146Q32.833 9.833 32.333 10.375ZM12.042 27.917Q12.042 27.917 12.042 27.917Q12.042 27.917 12.042 27.917Q12.042 27.917 12.042 27.917Q12.042 27.917 12.042 27.917Q12.042 27.917 12.042 27.917Q12.042 27.917 12.042 27.917Q12.042 27.917 12.042 27.917Q12.042 27.917 12.042 27.917Q12.042 27.917 12.042 27.917Q12.042 27.917 12.042 27.917Z"/></svg>
